X:41
T:Tink a Tink. TJD.41
M:2/4
L:1/8
Q:1/4=120
S:T.J.Dixon MS2, Lincolnshire, early 19thC
R:quick step
N:Repeat mark added at end
A:Lincolnshire, Holton le Moor
Z:vmp.R.Greig2010
K:G
G2(dB)|G2(dB)|cdcB|AFD2|G2dB|G2dB|cAGF|G2G2:|!
|:dgfg|edcB|ABcd|B2G2|dgfg|edcB|AcAF|G2G,2:|]

